X:1
T:Aerith's Theme
T:Aerith's Theme 
T:Nobuo Uematsu
%%score { ( 1 3 ) | ( 2 4 ) }
L:1/8
Q:1/4=80
M:4/4
K:D
V:1 treble nm="Grand Piano" snm="Pno."
V:3 treble 
V:2 treble 
V:4 treble 
V:1
"^Tenderly"!p! [ef]a d'6 | [e=c']a e6 | [ef]ad'^c' e'd'bc' | [ea]4 e4 |!mp! [Af]a [dd']6 | %5
 [e=c']a [Ae]2- [Ae]3 d/e/ | d4 =fede | d8 | [Fd]8- | [Fd]6!p! de | f6 fg | a6 [gb][ac'] | %12
 [bd']2 [gb]4 [eg]2 | [fa]/[gb]/ [fa]3- [fa]2 AF | C4 [cac']4 | [c^gb]4 [cfa]2 BA | [B,D]4 [Bdb]4 | %17
 [Bda]4 [Bdg]2 AF | [A,C]4 !arpeggio!!1!!2!!5![cae']4 | %19
 !arpeggio!!1!!2!!5![Bfd']4 [eac']2 [^GB][Ac] | [Bd]6 [=GAd]2- | %21
 [GAd]2 !tenuto![dbd']2 !tenuto![dac']2 !tenuto![dgb]2 | [dfa]4 [Adf]4 | %23
 z2 !tenuto![dbd']2 !tenuto![dac']2 !tenuto![dgb]2 | [cfc']3 [faf'] [faf']4 | %25
 z2 !tenuto![dgd']2 !tenuto![dac']2 !tenuto![dgb]2 | [da]4 e4- |!>(! e6!>)!!p! ef | %28
 [Bg][Af][Ge][Bd]- [Bd]4- | [Bd]2 x2 !1!!3!!5![Beg]!1!!2!!4![Adf][GBd]e | [Fd]8- | %31
 [Fd]2!pp! d'2 c'2 b2 | x4 e3 e/f/ | [dg]fed- d4 |!8va(! z d'' b'a' g'!8va)!d'bg |!p! [ef]a d'6 | %36
 [e=c']a e6 | [ef]ad'^c' e'd'bc' | [ea]4 e4 |!mf! [Af]a [dd']6 | [e=c']a [Ae]2- [Ae]3 d/e/ | %41
 d4 =fede | d8 | [Fd]2 (3!5
!a!2!e!3!f (3!1!d!3!c!1!A (3!5!B!2!F!5!B | %44
 (3!4!A!1!E!3!F (3!1!D!3!C!1!A, x2 !3!d!4!e | !3!!5
![df]6 !1!!3![df]!2!!4![eg] | %46
 !3!!5![fa]6 !1!!3![gb]!2!!4![ac'] | !1!!3!!5![dbd']2 [dgb]4 [Beg]2 | [fa]/[gb]/ [fa]3- [fa]2 AF | %49
 [A,C]4 [cac']4 |"_poco a poco crec." [c^gb]4 [cfa]2 BA | %51
 [B,D]2 A/d/f/=g/ a/d'/f'/a'/ =g'/f'/d'/a/ | g/f/d/f/ (3PeAe d2 [Bda]f | [Ac]4 !arpeggio![cae']4 | %54
 !arpeggio![Bfd']4 [eac']2 [Beb][cac'] | [dbd']6 (3ABd | %56
 g2!f! !tenuto![dgbd']2 !tenuto![ceac']2 !tenuto![Bdgb]2 | [Adfa]4 [FAdf]4 | %58
 z2 [dbd']2 [dac']2 [dgb]2 | [cfac']3 [fac'f'] [fac'f']4 | z2 [dbd']2 [dac']2 [dgb]2 | [Bda]4 e4- | %62
 e6!p! ef | gfed- d2 !arpeggio![dgad']2- | [dgad']4 [Beg][Adf]de | [Fd]8- | %66
 [Fd]2!pp! (3!tenuto!d'df (3!tenuto!c'df (3!tenuto!bdf | x4 e3 e/f/ | %68
 [dg][d'f'][c'e'][bd']- [bd']4 | [DG]4 [DEB]4 | [Fd]2 !arpeggio![A,DE]6 |] %71
V:2
"_with pedal"!ped! [DAd]8 | [EA=c]8 | [DAd]8 | [EA=c]8 |[K:bass] D,2 [FA]2 [EFA]2 [DFA]2 | %5
 A,,2 [=CE]2 [B,CE]2 [A,CE]2 | _B,,2 [=CD=F]2 [_B,DF]2 B,,2 | %7
 G,,2!>(! [A,_B,D]2 [G,B,D]2 G,,2!>)! | !5!D,,!5!A,!3!D!2!E !1!F!3!D!4!C!2!E | %9
 !1!D!2!A,!>(!!3!G,!1!A, !3!F,!1!A,!>)!!3!D,!4!C, | !5!B,,F,DB, FF, [B,D]2 | A,,F,CA, FF, [A,C]2 | %12
 G,,D,B,G, DD,B,G, | D,A,EA, FA, D2 | F,^G,A,C FG,A,C | F,^G,A,C FG,A,C | G,,D,A,B, GA,B,D | %17
 G,A,B,D GA,B,D | F,,!4!^G,!3!A,!2!C !1!F!4!G,!3!A,!2!C | F,^G,A,C FF, C2!ped-up! | %20
!ped! G,,D,=G,A, B, D3- | D2!mp! !tenuto![G,E]2!ped-up!!ped! !tenuto![A,F]2 !tenuto![B,G]2 | %22
 [DA]2 D,A, EA, F2 | G,DGD AD G2 | [A,F]2 F,,C, A,F,CF | B,,G,DG, FG, G2 | %26
 x E, F,G, B,D[I:staff -1]Gd |[I:staff +1] A,,2 E,2 A,4 | !5!G,,4- G,,!5!D,G,B, | %29
 x4 [E,D][F,D] [G,E]2 | D,,A,,D,A, [F,D]4- | [F,D]8 |[K:treble] [EG]4 [FA]4 | [GB]8 | G4 B4 | %35
 [DAd]8 | [EA=c]8 | [DAd]8 | [EA=c]6[K:bass] !5!A,,2 | %39
 !2!D,!5!A,!2!!1![DF]!5!A, !2!!1![DE]A,[DF]A, | !5!A,,!2!E,!2!!1![A,=C]!5!E, [A,B,]E,[A,C]E, | %41
 !5!_B,,!2!=F,!1!_B,!2!=C !1!D!2!C !3!B,2 | !5!G,,!2!D,!1!A,!3!_B, !1!D!3!B, !1!E2 | %43
 !5!D,,!2!A,,!1!F!4!A, !1!D!5!F,!1!A,!5!D,- | D,4 (3!1!B,!2!F,!1!A, (3!3!D,!2!A,!4!C, | %45
 (3!5!B,,!2!F,!1!D (3!2!C!1!F!5!B, (3!2!D!3!C!1!F (3!5!B,!1!D!2!F, | %46
 (3!5!A,,!2!F,!1!D (3!2!C!1!F!5!A, (3!2!D!3!C!1!F (3!5!B,!1!D!2!F, | %47
 (3!5!G,,!2!D,!1!B, (3!3!A,!1!D!4!G, (3!2!B,!3!A,!1!D (3!4!G,!1!B,!2!D, | %48
 !5!D,,!1!D, (3!5!A,!3!D!2!E (3!1!F!5!A,!2!E (3!1!D!2!A,!5!D, | %49
 (3!5!F,,!2!C,!1!F, (3!2!A,!3!^G,!2!A, (3!1!C!3!G,!2!A, (3!4!F,!1!A,!2!C, | %50
 (3!5!F,,!2!C,!1!F, (3!2!A,!3!^G,!2!A, (3!1!C!3!G,!2!A, (3!4!F,!1!A,!2!C, | %51
 (3!5!G,,!2!D,!1!=G, (3!2!B,!3!A,!2!B, (3!1!D!3!A,!2!B, (3!4!G,!1!B,!2!D, | %52
 (3G,,D,G, (3B,A,B, (3DA,B, (3G,B,D, | (3F,,C,F, (3A,^G,A, (3CG,A, (3F,A,C, | %54
 (3F,,C,F, (3A,^G,A, (3CG,A, (3F,A,C, | (3G,,D,=G, (3A,B,D (3ADG- (3GDG | B4 z2 !tenuto!A,,2 | %57
 (3D,,A,,D, (3E,F,A, (3DA,F, (3A,F,D, | (3G,,D,A, (3B,G,D, (3CA,D, (3DB,D, | %59
 (3F,,C,F, (3A,CF (3AFC (3A,F,C, | (3[B,,,B,,]D,G, (3DB,G, (3FB,G, (3GDG, | %61
 (3E,,B,,E, (3F,G,B, (3EB,E (3F[I:staff -1]GB | %62
!>(![I:staff +1] (3A,,E,G, (3B,D!>)![I:staff -1]G[I:staff +1] A,,4 | (3G,,D,G, (3A,B,D- D4- | %64
 D4 [E,D][F,D] [G,E]2 | D,,A,, (3D,E,F, (3A,DE [FA]2- | [FA]8 |[K:treble] [EG]4 [FA]4 | [GB]8 | %69
 [E,B,]4 [A,,G,]2 A,,,2 | D,,A,, F,6!ped-up! |] %71
V:3
 x8 | x8 | x8 | x8 | x8 | x8 | x8 | x8 | x8 | x8 | x8 | x8 | x8 | x8 | x8 | x8 | x8 | x8 | x8 | %19
 x8 | x8 | x8 | x8 | x8 | x8 | x8 | x4 x4 | [GBd]4 [Ec]4 | x8 |[I:staff +1] D[I:staff -1]GBd x4 | %30
 x8 | x8 | [Bda]4 c4 | x8 |!8va(! x5!8va)! x3 | x8 | x8 | x8 | x8 | x8 | x8 | x4 _B4 | z4 A2 G2 | %43
 x8 | x4 z2 !1!F2 | x8 | x8 | x8 | x8 | x8 | x8 | x8 | x8 | x8 | x8 | x8 | x8 | x8 | x8 | x8 | x8 | %61
 x4 [GB]4 | [GBd]4 [EAc]4 | B6 x2 | x6 [GB]2 | x8 | x8 | !arpeggio![Bda]4 c4 | x8 | x8 | x8 |] %71
V:4
 x8 | x8 | x8 | x8 |[K:bass] x8 | x8 | x8 | x8 | x8 | x8 | x8 | x8 | x8 | x8 | x8 | x8 | x8 | x8 | %18
 x8 | x8 | x8 | x8 | x8 | x8 | x8 | x8 | [B,EG]8 | x8 | x8 | x8 | x8 | x8 |[K:treble] x8 | x8 | %34
 E8 | x8 | x8 | x8 | x6[K:bass] x2 | x8 | x8 | x8 | x8 | x8 | x8 | x8 | x8 | x8 | x8 | x8 | x8 | %51
 x8 | x8 | x8 | x8 | x8 | x8 | x8 | x8 | x8 | x8 | x8 | x8 | x8 | x8 | x8 | x8 |[K:treble] x8 | %68
 x8 | x8 | x8 |] %71

